X:104
T: Braes of Balandine
N: O'Farrell's Pocket Companion v.2 (Sky ed. p.59)
N: "Scotch"
M: 3/4
L: 1/8
R: waltz
Q: 200
K: G
GA|B2 d2 d>e|e2 d2 ef/g/|e<d c<B A<G|{B}A4 G>A|
B2 d2 de/f/|g3fe2|d>edB AG/A/| G4 :|
P:2
G2|: D3E G>D|E2 G2 AB/c/|c2 A2 c/B/A/G/|E4 de/f/|
g2 G2 GA/B/|A2 B2 d>g|fed cBc|B2 A2 G>A|
B2 d2 de/f/|g3f e2|d>e d<B AG|E4 GA|
B2 d2 D2|E2 G2 ef/g/|d>edB AG/A/| G6 :|
